**harm	**harte	**silbe	**rhyme	**timestamp	**phrase	**leadinstrument	**kern
*M4/4	*M4/4	*	*	*	*	*	*
*	*	*	*	*	*	*	*
*	*	*	*	*	*	*	*
*A:	*A:	*	*	*	*	*	*A:
*	*	*	*	*	*	*	*
*	*	*	*	*	*	*	*
1r;	N	.	.	0	.	r	1r;
=1	=1	=1	=1	=1	=1	=1	=1
*>Letter>A	*>Letter>A	*>Letter>A	*>Letter>A	*>Letter>A	*>Letter>A	*>Letter>A	*>Letter>A
*>Label>Intro	*>Label>Intro	*>Label>Intro	*>Label>Intro	*>Label>Intro	*>Label>Intro	*>Label>Intro	*>Label>Intro
2I	A:maj	.	.	0.116	newline	harmonica	1A 1cc# 1ee
2VI7	F#:7	.	.	1.048	.	harmonica	2F# 2a# 2cc# 2ee
=2	=2	=2	=2	=2	=2	=2	=2
2ii7	B:min7	.	.	1.98	.	harmonica	1B 1dd 1ff# 1aa
2V7	E:7	.	.	2.912	.	harmonica	2E 2g# 2b 2dd
=3	=3	=3	=3	=3	=3	=3	=3
2I	A:maj	.	.	3.844	.	harmonica	1A 1cc# 1ee
2VI7	F#:7	.	.	4.776	.	harmonica	2F# 2a# 2cc# 2ee
=4	=4	=4	=4	=4	=4	=4	=4
2ii7	B:min7	.	.	5.708	.	harmonica	1B 1dd 1ff# 1aa
2V7	E:7	.	.	6.64	.	harmonica	2E 2g# 2b 2dd
=5	=5	=5	=5	=5	=5	=5	=5
2I	A:maj	.	.	7.572	newline	harmonica	1A 1cc# 1ee
2VI7	F#:7	.	.	8.495	.	harmonica	2F# 2a# 2cc# 2ee
=6	=6	=6	=6	=6	=6	=6	=6
2ii7	B:min7	.	.	9.419	.	harmonica	1B 1dd 1ff# 1aa
2V7	E:7	.	.	10.342	.	harmonica	2E 2g# 2b 2dd
=7	=7	=7	=7	=7	=7	=7	=7
2I	A:maj	.	.	11.265	.	harmonica	1A 1cc# 1ee
2VI7	F#:7	.	.	12.188	.	harmonica	2F# 2a# 2cc# 2ee
=8	=8	=8	=8	=8	=8	=8	=8
2ii7	B:min7	.	.	13.112	.	harmonica	2B 2dd 2ff# 2aa
2V7	E:7	.	.	14.035	.	harmonica	2E 2g# 2b 2dd
.	.	.	.	.	.	.	.
.	.	Hey	.	.	.	.	.
=9	=9	=9	=9	=9	=9	=9	=9
*>Letter>A	*>Letter>A	*>Letter>A	*>Letter>A	*>Letter>A	*>Letter>A	*>Letter>A	*>Letter>A
*>Label>Chorus	*>Label>Chorus	*>Label>Chorus	*>Label>Chorus	*>Label>Chorus	*>Label>Chorus	*>Label>Chorus	*>Label>Chorus
2I	A:maj	_	.	14.958	newline	voice	1A 1cc# 1ee
2VI7	F#:7	.	.	15.882	.	voice	2F# 2a# 2cc# 2ee
=10	=10	=10	=10	=10	=10	=10	=10
2ii7	B:min7	_	.	16.805	.	voice	2B 2dd 2ff# 2aa
2V7	E:7	Hey	.	17.729	.	voice	2E 2g# 2b 2dd
.	.	_	.	.	.	.	.
.	.	ba	.	.	.	.	.
=11	=11	=11	=11	=11	=11	=11	=11
2I	A:maj	_	.	18.653	.	voice	2.A 2.cc# 2.ee
.	.	by	.	.	.	.	.
.	.	.	.	.	.	.	.
2VI7	F#:7	.	.	19.576	.	voice	4F# 4a# 4cc# 4ee
.	.	.	.	.	.	.	.
=12	=12	=12	=12	=12	=12	=12	=12
2ii7	B:min7	.	.	20.5	.	voice	2B 2dd 2ff# 2aa
.	.	.	.	.	.	.	.
.	.	I	.	.	.	.	.
2V7	E:7	_	.	21.424	.	voice	2E 2g# 2b 2dd
.	.	wan	.	.	.	.	.
.	.	na	.	.	.	.	.
.	.	know	.	.	.	.	.
=13	=13	=13	=13	=13	=13	=13	=13
2I	A:maj	_	.	22.347	newline	voice	2A 2cc# 2ee
.	.	_	.	.	.	.	.
.	.	_	.	.	.	.	.
.	.	_	.	.	.	.	.
2VI7	F#:7	_	.	23.267	.	voice	2F# 2a# 2cc# 2ee
.	.	.	.	.	.	.	.
=14	=14	=14	=14	=14	=14	=14	=14
2ii7	B:min7	.	.	24.186	.	voice	2B 2dd 2ff# 2aa
.	.	if	.	.	.	.	.
.	.	you'll	.	.	.	.	.
2V7	E:7	be	.	25.106	.	voice	2E 2g# 2b 2dd
.	.	my	.	.	.	.	.
.	.	girl	.	.	.	.	.
=15	=15	=15	=15	=15	=15	=15	=15
2I	A:maj	_	.	26.025	.	voice	2A 2cc# 2ee
2VI7	F#:7	.	.	26.945	.	voice	2F# 2a# 2cc# 2ee
=16	=16	=16	=16	=16	=16	=16	=16
2ii7	B:min7	.	.	27.864	.	voice	2B 2dd 2ff# 2aa
2V7	E:7	.	.	28.784	.	voice	2E 2g# 2b 2dd
.	.	.	.	.	.	.	.
.	.	Hey	.	.	.	.	.
=17	=17	=17	=17	=17	=17	=17	=17
*>Letter>A	*>Letter>A	*>Letter>A	*>Letter>A	*>Letter>A	*>Letter>A	*>Letter>A	*>Letter>A
*>Label>Chorus	*>Label>Chorus	*>Label>Chorus	*>Label>Chorus	*>Label>Chorus	*>Label>Chorus	*>Label>Chorus	*>Label>Chorus
2I	A:maj	_	.	29.703	newline	voice	1A 1cc# 1ee
2VI7	F#:7	.	.	30.619	.	voice	2F# 2a# 2cc# 2ee
=18	=18	=18	=18	=18	=18	=18	=18
2ii7	B:min7	_	.	31.534	.	voice	2B 2dd 2ff# 2aa
2V7	E:7	Hey	.	32.45	.	voice	2E 2g# 2b 2dd
.	.	_	.	.	.	.	.
.	.	ba	.	.	.	.	.
=19	=19	=19	=19	=19	=19	=19	=19
2I	A:maj	_	.	33.365	.	voice	2.A 2.cc# 2.ee
.	.	by	.	.	.	.	.
.	.	.	.	.	.	.	.
2IV	D:maj	.	.	34.281	.	voice	4D 4f# 4a
.	.	.	.	.	.	.	.
=20	=20	=20	=20	=20	=20	=20	=20
2I	A:maj	.	.	35.196	.	voice	2A 2cc# 2ee
.	.	.	.	.	.	.	.
.	.	I	.	.	.	.	.
2Im7	A:7	_	.	36.112	.	voice	2A 2cc# 2ee 2gg#
.	.	wan	.	.	.	.	.
.	.	na	.	.	.	.	.
.	.	know	.	.	.	.	.
=21	=21	=21	=21	=21	=21	=21	=21
2I	A:maj	_	.	37.027	newline	voice	2A 2cc# 2ee
.	.	_	.	.	.	.	.
.	.	_	.	.	.	.	.
.	.	_	.	.	.	.	.
2VI	F#:maj	_	.	37.964	.	voice	2F# 2a# 2cc#
.	.	.	.	.	.	.	.
=22	=22	=22	=22	=22	=22	=22	=22
2ii	B:min	.	.	38.901	.	voice	2B 2dd 2ff#
.	.	If	.	.	.	.	.
.	.	you'll	.	.	.	.	.
2V	E:maj	be	.	39.838	.	voice	2E 2g# 2b
.	.	my	.	.	.	.	.
.	.	girl	.	.	.	.	.
=23	=23	=23	=23	=23	=23	=23	=23
2I	A:maj	_	.	40.774	.	voice	2A 2cc# 2ee
2IV	D:maj	.	.	41.711	.	voice	2D 2f# 2a
=24	=24	=24	=24	=24	=24	=24	=24
2I	A:maj	.	.	42.648	.	voice	1A 1cc# 1ee
2Im7	A:7	.	.	43.584	.	voice	2A 2cc# 2ee 2gg#
=25	=25	=25	=25	=25	=25	=25	=25
*>Letter>B	*>Letter>B	*>Letter>B	*>Letter>B	*>Letter>B	*>Letter>B	*>Letter>B	*>Letter>B
*>Label>Verse	*>Label>Verse	*>Label>Verse	*>Label>Verse	*>Label>Verse	*>Label>Verse	*>Label>Verse	*>Label>Verse
1IV	D:maj	.	.	44.521	newline	voice	1D 1f# 1a
.	.	When	.	.	.	.	.
.	.	I	.	.	.	.	.
.	.	saw	.	.	.	.	.
.	.	you	.	.	.	.	.
.	.	walk	.	.	.	.	.
.	.	in'	.	.	.	.	.
=26	=26	=26	=26	=26	=26	=26	=26
1IV	D:maj	down	.	46.343	.	voice	1D 1f# 1a
.	.	the	.	.	.	.	.
.	.	street	A	.	.	.	.
.	.	_	.	.	.	.	.
.	.	.	.	.	.	.	.
.	.	I	.	.	.	.	.
=27	=27	=27	=27	=27	=27	=27	=27
1I	A:maj	_	.	48.165	.	voice	1A 1cc# 1ee
.	.	said	.	.	.	.	.
.	.	that's	.	.	.	.	.
.	.	the	.	.	.	.	.
.	.	kind	.	.	.	.	.
.	.	of	.	.	.	.	.
.	.	girl	.	.	.	.	.
.	.	I'd	.	.	.	.	.
=28	=28	=28	=28	=28	=28	=28	=28
1Im7	A:7	_	.	49.987	.	voice	1A 1cc# 1ee 1gg#
.	.	like	.	.	.	.	.
.	.	to	.	.	.	.	.
.	.	meet	A	.	.	.	.
.	.	_	.	.	.	.	.
.	.	.	.	.	.	.	.
.	.	She's	.	.	.	.	.
=29	=29	=29	=29	=29	=29	=29	=29
1IV	D:maj	_	.	51.809	newline	voice	1D 1f# 1a
.	.	so	.	.	.	.	.
.	.	pret	.	.	.	.	.
.	.	ty	.	.	.	.	.
.	.	.	.	.	.	.	.
.	.	Lord	.	.	.	.	.
=30	=30	=30	=30	=30	=30	=30	=30
1IV	D:maj	_	.	53.651	.	voice	1D 1f# 1a
.	.	she's	.	.	.	.	.
.	.	fine	B	.	.	.	.
.	.	_	.	.	.	.	.
.	.	_	.	.	.	.	.
=31	=31	=31	=31	=31	=31	=31	=31
1II	B:maj	.	.	55.494	.	voice	1B 1dd# 1ff#
.	.	I'm	.	.	.	.	.
.	.	gon	.	.	.	.	.
.	.	na	.	.	.	.	.
.	.	make	.	.	.	.	.
.	.	her	.	.	.	.	.
.	.	mine	B	.	.	.	.
=32	=32	=32	=32	=32	=32	=32	=32
1r	N	_	.	57.336	.	voice	1r
.	.	all	.	.	.	.	.
.	.	_	.	.	.	.	.
.	.	mine	B	.	.	.	.
.	.	_	.	.	.	.	.
.	.	_	.	.	.	.	.
.	.	_	.	.	.	.	.
=33	=33	=33	=33	=33	=33	=33	=33
*>Letter>A	*>Letter>A	*>Letter>A	*>Letter>A	*>Letter>A	*>Letter>A	*>Letter>A	*>Letter>A
*>Label>Chorus	*>Label>Chorus	*>Label>Chorus	*>Label>Chorus	*>Label>Chorus	*>Label>Chorus	*>Label>Chorus	*>Label>Chorus
2I	A:maj	Hey	.	59.179	newline	voice	1A 1cc# 1ee
2VI7	F#:7	.	.	60.106	.	voice	2F# 2a# 2cc# 2ee
=34	=34	=34	=34	=34	=34	=34	=34
2ii7	B:min7	_	.	61.033	.	voice	2B 2dd 2ff# 2aa
2V7	E:7	Hey	.	61.96	.	voice	2E 2g# 2b 2dd
.	.	_	.	.	.	.	.
.	.	ba	.	.	.	.	.
=35	=35	=35	=35	=35	=35	=35	=35
2I	A:maj	_	.	62.887	.	voice	2.A 2.cc# 2.ee
.	.	by	.	.	.	.	.
.	.	.	.	.	.	.	.
2VI7	F#:7	.	.	63.814	.	voice	4F# 4a# 4cc# 4ee
.	.	.	.	.	.	.	.
=36	=36	=36	=36	=36	=36	=36	=36
2ii7	B:min7	.	.	64.741	.	voice	2B 2dd 2ff# 2aa
.	.	.	.	.	.	.	.
.	.	I	.	.	.	.	.
2V7	E:7	_	.	65.668	.	voice	2E 2g# 2b 2dd
.	.	wan	.	.	.	.	.
.	.	na	.	.	.	.	.
.	.	know	.	.	.	.	.
=37	=37	=37	=37	=37	=37	=37	=37
2I	A:maj	_	.	66.595	newline	voice	2A 2cc# 2ee
.	.	_	.	.	.	.	.
.	.	_	.	.	.	.	.
.	.	_	.	.	.	.	.
2VI7	F#:7	_	.	67.524	.	voice	2F# 2a# 2cc# 2ee
.	.	.	.	.	.	.	.
=38	=38	=38	=38	=38	=38	=38	=38
2ii7	B:min7	.	.	68.453	.	voice	2B 2dd 2ff# 2aa
.	.	If	.	.	.	.	.
.	.	you'll	.	.	.	.	.
2V7	E:7	be	.	69.382	.	voice	2E 2g# 2b 2dd
.	.	my	.	.	.	.	.
.	.	girl	.	.	.	.	.
=39	=39	=39	=39	=39	=39	=39	=39
2I	A:maj	_	.	70.311	.	voice	2A 2cc# 2ee
2IV	D:maj	.	.	71.24	.	voice	2D 2f# 2a
=40	=40	=40	=40	=40	=40	=40	=40
1I	A:maj	.	.	72.168	.	voice	1A 1cc# 1ee
.	A-:1	.	.	73.097	.	voice	.
.	G:1	.	.	73.562	.	voice	.
=41	=41	=41	=41	=41	=41	=41	=41
*>Letter>C	*>Letter>C	*>Letter>C	*>Letter>C	*>Letter>C	*>Letter>C	*>Letter>C	*>Letter>C
*>Label>Bridge	*>Label>Bridge	*>Label>Bridge	*>Label>Bridge	*>Label>Bridge	*>Label>Bridge	*>Label>Bridge	*>Label>Bridge
1VI7	F#:7	.	.	74.026	newline	voice	1F# 1a# 1cc# 1ee
.	.	When	.	.	.	.	.
.	.	you	.	.	.	.	.
.	.	turned	.	.	.	.	.
.	.	and	.	.	.	.	.
=42	=42	=42	=42	=42	=42	=42	=42
1VI7	F#:7	walked	.	75.865	.	voice	1F# 1a# 1cc# 1ee
.	.	a	.	.	.	.	.
.	.	way	C	.	.	.	.
.	.	.	.	.	.	.	.
=43	=43	=43	=43	=43	=43	=43	=43
1II7	B:7	.	.	77.704	.	voice	1B 1dd# 1ff# 1aa
.	.	That's	.	.	.	.	.
.	.	when	.	.	.	.	.
=44	=44	=44	=44	=44	=44	=44	=44
1II7	B:7	I	.	79.543	.	voice	1B 1dd# 1ff# 1aa
.	.	want	.	.	.	.	.
.	.	to	.	.	.	.	.
.	.	say	C	.	.	.	.
.	.	.	.	.	.	.	.
=45	=45	=45	=45	=45	=45	=45	=45
1V7	E:7	.	.	81.382	newline	voice	1E 1g# 1b 1dd
.	.	Come	.	.	.	.	.
.	.	on	.	.	.	.	.
.	.	_	.	.	.	.	.
.	.	ba	.	.	.	.	.
.	.	by	.	.	.	.	.
.	.	give	.	.	.	.	.
.	.	_	.	.	.	.	.
=46	=46	=46	=46	=46	=46	=46	=46
1V7	E:7	me	.	83.24	.	voice	1E 1g# 1b 1dd
.	.	a	.	.	.	.	.
.	.	_	.	.	.	.	.
.	.	whirl	D	.	.	.	.
.	.	_	.	.	.	.	.
.	.	.	.	.	.	.	.
.	.	I	.	.	.	.	.
=47	=47	=47	=47	=47	=47	=47	=47
1I	A:maj	_	.	85.099	.	voice	1A 1cc# 1ee
.	.	wan	.	.	.	.	.
.	.	na	.	.	.	.	.
.	.	know	.	.	.	.	.
.	.	if	.	.	.	.	.
.	.	you'll	.	.	.	.	.
=48	=48	=48	=48	=48	=48	=48	=48
1r	N	be	.	86.957	.	voice	1r
.	.	my	.	.	.	.	.
.	.	girl	D	.	.	.	.
.	.	_	.	.	.	.	.
.	.	.	.	.	.	.	.
=49	=49	=49	=49	=49	=49	=49	=49
*>Letter>A	*>Letter>A	*>Letter>A	*>Letter>A	*>Letter>A	*>Letter>A	*>Letter>A	*>Letter>A
*>Label>Chorus	*>Label>Chorus	*>Label>Chorus	*>Label>Chorus	*>Label>Chorus	*>Label>Chorus	*>Label>Chorus	*>Label>Chorus
2I	A:maj	Hey	.	88.816	newline	voice	1A 1cc# 1ee
2VI	F#:maj	.	.	89.74	.	voice	2F# 2a# 2cc#
=50	=50	=50	=50	=50	=50	=50	=50
2ii7	B:min7	_	.	90.664	.	voice	2B 2dd 2ff# 2aa
2V7	E:7	Hey	.	91.588	.	voice	2E 2g# 2b 2dd
.	.	_	.	.	.	.	.
.	.	ba	.	.	.	.	.
=51	=51	=51	=51	=51	=51	=51	=51
2I	A:maj	_	.	92.513	.	voice	2.A 2.cc# 2.ee
.	.	by	.	.	.	.	.
.	.	.	.	.	.	.	.
2VI	F#:maj	.	.	93.437	.	voice	4F# 4a# 4cc#
.	.	.	.	.	.	.	.
=52	=52	=52	=52	=52	=52	=52	=52
2ii7	B:min7	.	.	94.361	.	voice	2B 2dd 2ff# 2aa
.	.	.	.	.	.	.	.
.	.	I	.	.	.	.	.
2V7	E:7	_	.	95.285	.	voice	2E 2g# 2b 2dd
.	.	wan	.	.	.	.	.
.	.	na	.	.	.	.	.
.	.	know	.	.	.	.	.
=53	=53	=53	=53	=53	=53	=53	=53
2I	A:maj	_	.	96.21	newline	voice	2A 2cc# 2ee
.	.	_	.	.	.	.	.
.	.	_	.	.	.	.	.
.	.	_	.	.	.	.	.
2VI	F#:maj	_	.	97.149	.	voice	2F# 2a# 2cc#
.	.	.	.	.	.	.	.
=54	=54	=54	=54	=54	=54	=54	=54
2ii7	B:min7	.	.	98.088	.	voice	2B 2dd 2ff# 2aa
.	.	If	.	.	.	.	.
.	.	you'll	.	.	.	.	.
2V7	E:7	be	.	99.027	.	voice	2E 2g# 2b 2dd
.	.	my	.	.	.	.	.
.	.	girl	D	.	.	.	.
=55	=55	=55	=55	=55	=55	=55	=55
2I	A:maj	_	.	99.967	.	voice	2A 2cc# 2ee
2VI	F#:maj	.	.	100.906	.	voice	2F# 2a# 2cc#
=56	=56	=56	=56	=56	=56	=56	=56
2ii7	B:min7	.	.	101.845	.	voice	1B 1dd 1ff# 1aa
2V7	E:7	.	.	102.784	.	voice	2E 2g# 2b 2dd
=57	=57	=57	=57	=57	=57	=57	=57
*>Letter>C	*>Letter>C	*>Letter>C	*>Letter>C	*>Letter>C	*>Letter>C	*>Letter>C	*>Letter>C
*>Label>Bridge	*>Label>Bridge	*>Label>Bridge	*>Label>Bridge	*>Label>Bridge	*>Label>Bridge	*>Label>Bridge	*>Label>Bridge
1VI7	F#:7	.	.	103.724	newline	voice	1F# 1a# 1cc# 1ee
.	.	When	.	.	.	.	.
.	.	you	.	.	.	.	.
.	.	turned	.	.	.	.	.
.	.	and	.	.	.	.	.
=58	=58	=58	=58	=58	=58	=58	=58
1VI7	F#:7	walked	.	105.555	.	voice	1F# 1a# 1cc# 1ee
.	.	a	.	.	.	.	.
.	.	way	C	.	.	.	.
.	.	.	.	.	.	.	.
=59	=59	=59	=59	=59	=59	=59	=59
1II7	B:7	.	.	107.386	.	voice	1B 1dd# 1ff# 1aa
.	.	that's	.	.	.	.	.
.	.	when	.	.	.	.	.
=60	=60	=60	=60	=60	=60	=60	=60
1II7	B:7	I	.	109.217	.	voice	1B 1dd# 1ff# 1aa
.	.	want	.	.	.	.	.
.	.	to	.	.	.	.	.
.	.	say	C	.	.	.	.
.	.	.	.	.	.	.	.
=61	=61	=61	=61	=61	=61	=61	=61
1V7	E:7	.	.	111.049	newline	voice	1E 1g# 1b 1dd
.	.	Come	.	.	.	.	.
.	.	on	.	.	.	.	.
.	.	_	.	.	.	.	.
.	.	ba	.	.	.	.	.
.	.	by	.	.	.	.	.
.	.	give	.	.	.	.	.
.	.	_	.	.	.	.	.
=62	=62	=62	=62	=62	=62	=62	=62
1V7	E:7	me	.	112.884	.	voice	1E 1g# 1b 1dd
.	.	a	.	.	.	.	.
.	.	_	.	.	.	.	.
.	.	whirl	D	.	.	.	.
.	.	_	.	.	.	.	.
.	.	.	.	.	.	.	.
.	.	I	.	.	.	.	.
=63	=63	=63	=63	=63	=63	=63	=63
1I	A:maj	_	.	114.72	.	voice	1A 1cc# 1ee
.	.	wan	.	.	.	.	.
.	.	na	.	.	.	.	.
.	.	know	.	.	.	.	.
.	.	if	.	.	.	.	.
.	.	you	.	.	.	.	.
=64	=64	=64	=64	=64	=64	=64	=64
1I	A:maj	be	.	116.556	.	voice	1A 1cc# 1ee
.	.	my	.	.	.	.	.
.	.	girl	D	.	.	.	.
.	.	_	.	.	.	.	.
.	.	.	.	.	.	.	.
=65	=65	=65	=65	=65	=65	=65	=65
*>Letter>A	*>Letter>A	*>Letter>A	*>Letter>A	*>Letter>A	*>Letter>A	*>Letter>A	*>Letter>A
*>Label>Chorus	*>Label>Chorus	*>Label>Chorus	*>Label>Chorus	*>Label>Chorus	*>Label>Chorus	*>Label>Chorus	*>Label>Chorus
2I	A:maj	Hey	.	118.391	newline	voice	1A 1cc# 1ee
2VI7	F#:7	.	.	119.319	.	voice	2F# 2a# 2cc# 2ee
=66	=66	=66	=66	=66	=66	=66	=66
2ii	B:min	_	.	120.247	.	voice	2B 2dd 2ff#
2V7	E:7	Hey	.	121.175	.	voice	2E 2g# 2b 2dd
.	.	_	.	.	.	.	.
.	.	ba	.	.	.	.	.
=67	=67	=67	=67	=67	=67	=67	=67
2I	A:maj	_	.	122.103	.	voice	2.A 2.cc# 2.ee
.	.	by	.	.	.	.	.
.	.	.	.	.	.	.	.
2VI7	F#:7	.	.	123.03	.	voice	4F# 4a# 4cc# 4ee
.	.	.	.	.	.	.	.
=68	=68	=68	=68	=68	=68	=68	=68
2ii7	B:min7	.	.	123.958	.	voice	2B 2dd 2ff# 2aa
.	.	.	.	.	.	.	.
.	.	I	.	.	.	.	.
2V7	E:7	_	.	124.886	.	voice	2E 2g# 2b 2dd
.	.	wan	.	.	.	.	.
.	.	na	.	.	.	.	.
.	.	know	.	.	.	.	.
=69	=69	=69	=69	=69	=69	=69	=69
2I	A:maj	_	.	125.814	newline	voice	2A 2cc# 2ee
.	.	_	.	.	.	.	.
.	.	_	.	.	.	.	.
.	.	_	.	.	.	.	.
2VI7	F#:7	_	.	126.759	.	voice	2F# 2a# 2cc# 2ee
.	.	.	.	.	.	.	.
=70	=70	=70	=70	=70	=70	=70	=70
2ii	B:min	.	.	127.705	.	voice	2B 2dd 2ff#
.	.	If	.	.	.	.	.
.	.	you'll	.	.	.	.	.
2V7	E:7	be	.	128.651	.	voice	2E 2g# 2b 2dd
.	.	my	.	.	.	.	.
.	.	girl	D	.	.	.	.
=71	=71	=71	=71	=71	=71	=71	=71
2I	A:maj	_	.	129.596	.	voice	2A 2cc# 2ee
2VI7	F#:7	.	.	130.542	.	voice	2F# 2a# 2cc# 2ee
=72	=72	=72	=72	=72	=72	=72	=72
2ii7	B:min7	.	.	131.487	.	voice	1B 1dd 1ff# 1aa
2V7	E:7	.	.	132.433	.	voice	2E 2g# 2b 2dd
=73	=73	=73	=73	=73	=73	=73	=73
*>Letter>A	*>Letter>A	*>Letter>A	*>Letter>A	*>Letter>A	*>Letter>A	*>Letter>A	*>Letter>A
*>Label>Fadeout	*>Label>Fadeout	*>Label>Fadeout	*>Label>Fadeout	*>Label>Fadeout	*>Label>Fadeout	*>Label>Fadeout	*>Label>Fadeout
2I	A:maj	Hey	.	133.379	newline	voice	2.A 2.cc# 2.ee
2VI7	F#:7	.	.	134.337	.	voice	4F# 4a# 4cc# 4ee
.	.	_	.	.	.	.	.
.	.	hey	.	.	.	.	.
=74	=74	=74	=74	=74	=74	=74	=74
2ii	B:min	_	.	135.296	.	voice	2B 2dd 2ff#
.	.	hey	.	.	.	.	.
.	.	_	.	.	.	.	.
.	.	hey	.	.	.	.	.
2V7	E:7	_	.	136.254	.	voice	2E 2g# 2b 2dd
.	.	hey	.	.	.	.	.
.	.	_	.	.	.	.	.
=75	=75	=75	=75	=75	=75	=75	=75
2I	A:maj	ba	.	137.213	.	voice	2.A 2.cc# 2.ee
.	.	by	.	.	.	.	.
.	.	.	.	.	.	.	.
2VI7	F#:7	.	.	138.171	.	voice	4F# 4a# 4cc# 4ee
.	.	.	.	.	.	.	.
=76	=76	=76	=76	=76	=76	=76	=76
2ii7	B:min7	.	.	139.129	.	voice	2B 2dd 2ff# 2aa
.	.	.	.	.	.	.	.
.	.	Come	.	.	.	.	.
2V7	E:7	on	.	140.088	.	voice	2E 2g# 2b 2dd
.	.	_	.	.	.	.	.
.	.	ba	.	.	.	.	.
=77	=77	=77	=77	=77	=77	=77	=77
2I	A:maj	_	.	141.526	.	voice	2A 2cc# 2ee
.	.	by	.	.	.	.	.
.	.	_	.	.	.	.	.
2VI7	F#:7	.	.	.	.	voice	2F# 2a# 2cc# 2ee
1r;	N	.	.	143.177	.	r	1r;
*-	*-	*-	*-	*-	*-	*-	*-
!!!BillboardChartDate: 1962/04/28
!!!BillboardPeak: 1
!!!BillboardWeeksOnChart: 14
!!!COC: Bruce Channel
!!!EMD: Had to lengthen harmonic transcription fade out by one measure to match melodic transcription -Nat Condit-Schultz
!!!ENC: Nathaniel Condit-Schultz
!!!EST: Awating manual error checking and editing.
!!!OTL: Hey! Baby
!!!RDF**harte: Chris Harte's syntax, used by MIREX
!!!RDF**harmony: **recip + pitch class of root + harmonic quality
!!!RDF**leadinstrument: original McGill primary instrumentation annotation
!!!RDF**phrase: newline = linebreak in original McGill transcription
!!!RDF**timestamp: McGill audio timestamp in seconds
!!!RDT: 2017/01/12/
!!!SampleActualRank: 40
!!!SampleID#: 0789
!!!SampleTargetRank: 40
!!!MBID: 95be83ae-e507-4381-bc76-ecd5f6b0fac8
